X: 305566
M: C
L: 1/8
K: F
|: de |\
fedc BAGF | [c2A2][c2A2] [c2A2]de |\
fgaf efge | fgaf fedc |\
fedc BAGF | dBcA G3A |\
[BG][cA][dB][BG] [AF]GFE | F2F2F2 :|


